svgs/solid/house-laptop.svg

<svg xmlns="http://www.w3.org/2000/svg" viewBox="0 0 640 512"><!--! Font Awesome Free 6.6.0 by @fontawesome - https://fontawesome.com License - https://fontawesome.com/license/free (Icons: CC BY 4.0, Fonts: SIL OFL 1.1, Code: MIT License) Copyright 2024 Fonticons, Inc. --><path d="M218.3 8.5c12.3-11.3 31.2-11.3 43.4 0l208 192c6.7 6.2 10.3 14.8 10.3 23.5l-144 0c-19.1 0-36.3 8.4-48 21.7l0-37.7c0-8.8-7.2-16-16-16l-64 0c-8.8 0-16 7.2-16 16l0 64c0 8.8 7.2 16 16 16l64 0 0 128-160 0c-26.5 0-48-21.5-48-48l0-112-32 0c-13.2 0-25-8.1-29.8-20.3s-1.6-26.2 8.1-35.2l208-192zM352 304l0 144 192 0 0-144-192 0zm-48-16c0-17.7 14.3-32 32-32l224 0c17.7 0 32 14.3 32 32l0 160 32 0c8.8 0 16 7.2 16 16c0 26.5-21.5 48-48 48l-48 0-192 0-48 0c-26.5 0-48-21.5-48-48c0-8.8 7.2-16 16-16l32 0 0-160z"/></svg>

<svg xmlns="http://www.w3.org/2000/svg" viewBox="0 0 640 512"><!--! Font Awesome Free 6.5.2 by @fontawesome - https://fontawesome.com License - https://fontawesome.com/license/free (Icons: CC BY 4.0, Fonts: SIL OFL 1.1, Code: MIT License) Copyright 2024 Fonticons, Inc. --><path d="M218.3 8.5c12.3-11.3 31.2-11.3 43.4 0l208 192c6.7 6.2 10.3 14.8 10.3 23.5H336c-19.1 0-36.3 8.4-48 21.7V208c0-8.8-7.2-16-16-16H208c-8.8 0-16 7.2-16 16v64c0 8.8 7.2 16 16 16h64V416H112c-26.5 0-48-21.5-48-48V256H32c-13.2 0-25-8.1-29.8-20.3s-1.6-26.2 8.1-35.2l208-192zM352 304V448H544V304H352zm-48-16c0-17.7 14.3-32 32-32H560c17.7 0 32 14.3 32 32V448h32c8.8 0 16 7.2 16 16c0 26.5-21.5 48-48 48H544 352 304c-26.5 0-48-21.5-48-48c0-8.8 7.2-16 16-16h32V288z"/></svg>
